img/calendar.svg

<svg width="17" height="17" viewBox="0 0 17 17" fill="none" xmlns="http://www.w3.org/2000/svg">
<path d="M15.4869 1.59375H13.1988V0.53125C13.1988 0.237469 12.9628 0 12.6708 0C12.3788 0 12.1429 0.237469 12.1429 0.53125V1.59375H8.97515V0.53125C8.97515 0.237469 8.73863 0 8.4472 0C8.15578 0 7.91925 0.237469 7.91925 0.53125V1.59375H4.75155V0.53125C4.75155 0.237469 4.51503 0 4.2236 0C3.93217 0 3.69565 0.237469 3.69565 0.53125V1.59375H1.40804C0.630373 1.59375 0 2.22753 0 3.01006V15.5832C0 16.3657 0.630373 17 1.40804 17H15.4869C16.2646 17 16.8944 16.3657 16.8944 15.5832V3.01006C16.8944 2.22753 16.2646 1.59375 15.4869 1.59375ZM15.8385 15.5832C15.8385 15.7787 15.6807 15.9375 15.4869 15.9375H1.40804C1.21376 15.9375 1.0559 15.7787 1.0559 15.5832V3.01006C1.0559 2.81509 1.21376 2.65625 1.40804 2.65625H3.69565V3.71875C3.69565 4.01253 3.93217 4.25 4.2236 4.25C4.51503 4.25 4.75155 4.01253 4.75155 3.71875V2.65625H7.91925V3.71875C7.91925 4.01253 8.15578 4.25 8.4472 4.25C8.73863 4.25 8.97515 4.01253 8.97515 3.71875V2.65625H12.1429V3.71875C12.1429 4.01253 12.3788 4.25 12.6708 4.25C12.9628 4.25 13.1988 4.01253 13.1988 3.71875V2.65625H15.4869C15.6807 2.65625 15.8385 2.81509 15.8385 3.01006V15.5832Z" fill="#1A61C9"/>
<path d="M5.80734 6.375H3.69556V7.96875H5.80734V6.375Z" fill="#1A61C9"/>
<path d="M5.80734 9.03125H3.69556V10.625H5.80734V9.03125Z" fill="#1A61C9"/>
<path d="M5.80734 11.6875H3.69556V13.2812H5.80734V11.6875Z" fill="#1A61C9"/>
<path d="M9.50317 11.6875H7.39136V13.2812H9.50317V11.6875Z" fill="#1A61C9"/>
<path d="M9.50317 9.03125H7.39136V10.625H9.50317V9.03125Z" fill="#1A61C9"/>
<path d="M9.50317 6.375H7.39136V7.96875H9.50317V6.375Z" fill="#1A61C9"/>
<path d="M13.1987 11.6875H11.0869V13.2812H13.1987V11.6875Z" fill="#1A61C9"/>
<path d="M13.1987 9.03125H11.0869V10.625H13.1987V9.03125Z" fill="#1A61C9"/>
<path d="M13.1987 6.375H11.0869V7.96875H13.1987V6.375Z" fill="#1A61C9"/>
</svg>

<svg width="17" height="17" fill="none" xmlns="http://www.w3.org/2000/svg"><path d="M15.487 1.594h-2.288V.53a.53.53 0 10-1.056 0v1.063H8.975V.53A.53.53 0 008.447 0a.53.53 0 00-.528.531v1.063H4.752V.53A.53.53 0 004.224 0a.53.53 0 00-.528.531v1.063H1.408C.63 1.594 0 2.228 0 3.01v12.573C0 16.366.63 17 1.408 17h14.079c.778 0 1.407-.634 1.407-1.417V3.01c0-.782-.63-1.416-1.407-1.416zm.351 13.99a.353.353 0 01-.351.354H1.408a.353.353 0 01-.352-.355V3.01c0-.195.158-.354.352-.354h2.288V3.72a.53.53 0 00.528.531.53.53 0 00.528-.531V2.656h3.167V3.72a.53.53 0 00.528.531.53.53 0 00.528-.531V2.656h3.168V3.72a.53.53 0 101.056 0V2.656h2.288c.194 0 .351.16.351.354v12.573z" fill="#1A61C9"/><path d="M5.807 6.375H3.696v1.594h2.111V6.375zm0 2.656H3.696v1.594h2.111V9.031zm0 2.657H3.696v1.593h2.111v-1.594zm3.696 0H7.391v1.593h2.112v-1.594zm0-2.657H7.391v1.594h2.112V9.031zm0-2.656H7.391v1.594h2.112V6.375zm3.696 5.313h-2.112v1.593h2.112v-1.594zm0-2.657h-2.112v1.594h2.112V9.031zm0-2.656h-2.112v1.594h2.112V6.375z" fill="#1A61C9"/></svg>
